src/assets/check.svg

<svg width="50" height="51" viewBox="0 0 50 51" fill="none" xmlns="http://www.w3.org/2000/svg">
<g id="Done_ring_round">
<path id="Line 1" d="M18.75 21.2532L26.3327 27.0496C26.7539 27.3716 27.3533 27.3089 27.6987 26.9065L41.6666 10.6362" stroke="#33363F" stroke-width="3" stroke-linecap="round"/>
<path id="Ellipse 47" d="M43.75 25.5001C43.75 29.4931 42.5228 33.3859 40.2409 36.6316C37.9589 39.8773 34.7368 42.313 31.027 43.5965C27.3172 44.88 23.3062 44.9469 19.5572 43.7878C15.8082 42.6287 12.5096 40.3018 10.1246 37.1339C7.73969 33.966 6.38822 30.1163 6.26004 26.1254C6.13186 22.1345 7.23339 18.2029 9.40994 14.8828C11.5865 11.5628 14.7287 9.02095 18.3953 7.6144C22.0619 6.20786 26.0687 6.00723 29.8529 7.0407" stroke="#33363F" stroke-width="3" stroke-linecap="round"/>
</g>
</svg>

<svg width="50" height="51" fill="none" xmlns="http://www.w3.org/2000/svg"><g stroke="#33363F" stroke-width="3" stroke-linecap="round"><path d="m18.75 21.253 7.583 5.797a1 1 0 0 0 1.366-.143l13.968-16.27"/><path d="M43.75 25.5c0 3.993-1.227 7.886-3.51 11.132a18.783 18.783 0 0 1-9.213 6.965 18.414 18.414 0 0 1-11.47.19 18.75 18.75 0 0 1-9.432-6.653A19.34 19.34 0 0 1 6.26 26.125a19.381 19.381 0 0 1 3.15-11.242 18.816 18.816 0 0 1 8.985-7.269 18.416 18.416 0 0 1 11.458-.573"/></g></svg>
